X:1
T:Kneeling at the Threshold
T:Kneeling at the Threshold
T:Charles Crozat Converse, 1870
T:William Lindsay Alexander, 1865, alt.
T:Public Domain Courtesy of the Cyber Hymnal™
T:Public Domain Courtesy of the Cyber Hymnal™
C:Charles Crozat Converse, 1870
Z:Public Domain
Z:Courtesy of the Cyber Hymnal™
%%score ( 1 2 ) 3
L:1/8
Q:1/4=107
M:4/4
K:Ab
V:1 treble 
V:2 treble 
V:3 bass 
V:1
 [CE]2 | [CE]3 [CE] [DF]3 [CE] | [CE]2 [A,C]2 z2 [A,C]2 | [CE]2 [CA]2 [Ec]2 [EA]2 | [EB]6 z2 | %5
w: 1.~I’m|kneel- ing at the|thresh- old, so|wea- ry, faint, and|sore,|
w: 2.~A|wea- ry path I’ve|tra- veled, ’mid|dark- ness, storm and|strife;|
w: 3.~Me-|thinks I hear the|voic- es of|loved ones as they|stand,|
w: 4.~The|friends that start- ed|with me have|en- tered long a-|go;|
w: 5.~With|them the bless- èd|an- gels, that|know no grief or|sin,|
 [Ec]3 [Ec] [EB]2 [EA]2 | [FA]2 [DF]2 z2 [DF]2 | [CE]2 [EA]2 [EA]3 [EB] | [EA]4 z2 [EA]2 | %9
w: Wait- ing for the|dawn- ing, the|op- ening of the|door; I’m|
w: Bear- ing many a|bur- den, and|strugg- ling for my|life; But|
w: Sing- ing in the|sun- shine, in|that fair sin- less|land: Oh,|
w: One by one they|left me still|strugg- ling with the|foe; Their|
w: Stand- ing by the|por- tals, pre-|pared to let me|in; O|
 [GB]3 [GB] [FA]2 [GB]2 | [Ac]2 A2 z2 [Ac]2 | [Ae]3 [Ac] [Ac]2 A2 | [GB]4 z2 [Ac]2 | %13
w: wait- ing till the|Mas- ter shall|bid me rise and|come To|
w: now the morn is|break- ing, my|toil will soon be|o’er; I’m|
w: would that I were|with them, a-|mid their shin- ing|throng, And|
w: pil- grim- age was|shor- ter, their|tri- umph sur- er|won, How|
w: Lord, I wait Thy|plea- sure— Thy|time and way are|best; But|
 [Ae]3 [Ac] [Ac]2 [EA]2 | [FA]2 [DF]2 z2 [DF]2 | [CE]2 [EA]2 [EA]3 [EB] | [EA]6 z2 || %17
w: His all glor- ious|pre- sence, the|glad- ness of His|home.|
w: kneel- ing at the|thresh- old, my|hand is on the|door.|
w: ming- ling in their|wor- ship, and|join- ing in their|song!|
w: lov- ing- ly they’ll|hail me, when|all my toil is|done.|
w: I’m all worn and|wea- ry; O|Fa- ther, bid me|rest!|
"^Refrain" [Ec]3 [Ec] [Ec]2 [Ec]2 | [Fd]2 [Ec]6 | [FA]3 [FA] [FA]2 [FA]2 | [GB]6 z2 | %21
w: ||||
w: ||||
w: Kneel- ing at the|thresh- old,|wea- ry, faint and|sore;|
w: ||||
w: ||||
 [Ec]3 [Ec] [EB]2 [EA]2 | [FA]2 [DF]2 z2 [DF]2 | [CE]2 [EA]2 [EA]3 [EB] | [EA]6 |] %25
w: ||||
w: ||||
w: Kneel- ing at the|thresh- old, my|hand is at the|door.|
w: ||||
w: ||||
V:2
 x2 | x8 | x8 | x8 | x8 | x8 | x8 | x8 | x8 | x8 | x2 A2 x4 | x6 A2 | x8 | x8 | x8 | x8 | x8 || %17
 x8 | x8 | x8 | x8 | x8 | x8 | x8 | x6 |] %25
V:3
 [A,,A,]2 | [A,,A,]3 [A,,A,] [D,A,]3 [A,,A,] | [A,,A,]2 [A,,E,]2 z2 [A,,A,]2 | %3
 [A,,A,]2 [A,,E,]2 [A,,A,]2 [C,A,]2 | [E,G,]6 z2 | [A,,A,]3 [A,,A,] [B,,G,]2 [C,A,]2 | %6
 [D,A,]2 [D,A,]2 z2 [D,A,]2 | [E,A,]2 [E,C]2 [E,C]3 [E,D] | [A,,C]4 z2 [A,C]2 | %9
 [E,E]3 [E,E] [F,C]2 [E,E]2 | [A,E]2 [A,C]2 z2 [A,C]2 | [A,C]3 [A,E] [A,E]2 [A,C]2 | %12
 [E,E]4 z2 [A,E]2 | [A,C]3 [A,E] [A,E]2 [A,C]2 | [D,D]2 [D,A,]2 z2 [D,A,]2 | %15
 [E,A,]2 [E,C]2 [E,C]3 [E,D] | [A,,C]6 z2 || [A,,A,]3 [A,,A,] [A,,A,]2 [A,,A,]2 | %18
 [A,,A,]2 [A,,A,]6 | [F,C]3 [F,C] [F,C]2 [F,C]2 | [E,E]6 z2 | [A,,A,]3 [A,,A,] [B,,G,]2 [C,A,]2 | %22
 [D,A,]2 [D,A,]2 z2 [D,A,]2 | [E,A,]2 [E,C]2 [E,C]3 [E,D] | [A,,C]6 |] %25

